src/assets/icon-pediatric.svg

<svg xmlns="http://www.w3.org/2000/svg" width="107" height="107" viewBox="0 0 107 107" fill="none"><g clip-path="url(#clip0_150_310)"><path d="M53.323 106.486C82.5903 106.486 106.316 82.7603 106.316 53.493C106.316 24.2258 82.5903 0.5 53.323 0.5C24.0557 0.5 0.329956 24.2258 0.329956 53.493C0.329956 82.7603 24.0557 106.486 53.323 106.486Z" fill="#306B4D"></path><path d="M53.5002 70.2857C46.7064 70.2857 41.1789 64.7577 41.1789 57.9644H46.1072V62.8927C46.1072 64.2549 47.2107 65.3574 48.5719 65.3574H58.4285C59.7897 65.3574 60.8932 64.2549 60.8932 62.8927V57.9644H65.8215C65.8215 64.7577 60.294 70.2857 53.5002 70.2857ZM55.9644 60.4286H51.0361V57.9644H55.9644V60.4286ZM68.2856 53.0356H58.4285H48.5719H38.7148C37.3536 53.0356 36.2501 54.138 36.2501 55.5002V57.9644C36.2501 67.475 43.9886 75.214 53.5002 75.214C63.0118 75.214 70.7503 67.475 70.7503 57.9644V55.5002C70.7503 54.138 69.6469 53.0356 68.2856 53.0356Z" fill="white"></path><path d="M66.7576 75.5004C66.0487 76.0613 65.3041 76.5763 64.5426 77.0382C61.1985 79.069 57.3808 80.1423 53.5003 80.1423C41.2714 80.1423 31.3219 69.6406 31.3219 56.7319C31.3219 56.3542 31.3301 55.9811 31.3469 55.608C31.4071 54.2483 30.3532 53.0979 28.9935 53.0382C28.6281 53.0183 28.2754 53.1127 27.9421 53.2607L27.6226 52.7085C27.4317 52.8187 27.2235 52.9029 27.0056 52.9586C25.5413 53.3363 23.9289 52.1404 23.9289 50.5715C23.9289 49.2118 25.0344 48.1068 26.3931 48.1068C26.8264 48.1068 27.2536 48.2201 27.619 48.4319C27.7696 48.5187 27.9105 48.6218 28.0391 48.7377C28.1544 48.8403 28.2948 48.8836 28.4219 48.9612C28.7062 49.3853 29.0879 49.7487 29.606 49.9335C29.879 50.03 30.1582 50.0754 30.4323 50.0754C31.4454 50.0754 32.3947 49.4476 32.7535 48.4391L32.9449 47.9241C33.1098 47.4959 33.2864 47.0748 33.4742 46.6583C34.1107 45.2481 34.8905 43.8956 35.7904 42.6395C36.5825 41.5325 36.3273 39.9922 35.2203 39.2006C34.1096 38.4064 32.5708 38.6636 31.7813 39.7707C30.8595 41.0609 30.0684 42.4451 29.3717 43.8701C28.4301 43.4531 27.4287 43.1785 26.3931 43.1785C22.3166 43.1785 19.0001 46.4945 19.0001 50.5715C19.0001 54.648 22.3166 57.9639 26.3931 57.9639C26.4135 57.9639 26.4324 57.9568 26.4523 57.9568C27.0724 73.0122 38.9486 85.0712 53.5003 85.0712C58.2832 85.0712 62.9864 83.7498 67.097 81.2519C68.0295 80.689 68.9441 80.0535 69.8138 79.365C70.8811 78.5229 71.0628 76.9734 70.2196 75.9046C69.3759 74.8338 67.8259 74.6531 66.7576 75.5004Z" fill="white"></path><path d="M80.6072 43.1784C79.5772 43.1784 78.5804 43.4515 77.6398 43.8669C74.5877 37.6229 69.443 32.865 63.3571 30.3646V25.9283C63.3571 24.5666 62.2536 23.4642 60.8929 23.4642C59.5323 23.4642 58.4288 24.5666 58.4288 25.9283V28.8886C57.6157 28.7299 56.7945 28.6063 55.9646 28.5262V23.4642C55.9646 22.102 54.8612 21 53.5 21C52.1393 21 51.0358 22.102 51.0358 23.4642V28.5165C50.2054 28.5941 49.3847 28.7186 48.5717 28.8743V25.9283C48.5717 24.5666 47.4682 23.4642 46.1075 23.4642C44.7463 23.4642 43.6428 24.5666 43.6428 25.9283V30.3417C41.3619 31.2746 39.1902 32.518 37.189 34.0961C36.1202 34.9387 35.9375 36.4883 36.7797 37.557C37.2661 38.173 37.9878 38.4951 38.7156 38.4951C39.2499 38.4951 39.7889 38.3221 40.2401 37.9658C44.093 34.9265 48.6773 33.3213 53.5 33.3213C62 33.3213 69.861 38.5553 73.5261 46.6583C73.7139 47.0747 73.8905 47.4958 74.0553 47.9266L74.2467 48.439C74.6055 49.4475 75.5549 50.0753 76.568 50.0753C76.8421 50.0753 77.1212 50.0299 77.3943 49.9334C77.9123 49.7487 78.2946 49.3847 78.5784 48.9606C78.7055 48.8835 78.8458 48.8396 78.9612 48.7376C79.0898 48.6217 79.2307 48.5186 79.3741 48.4364C79.7467 48.22 80.1739 48.1067 80.6072 48.1067C81.9658 48.1067 83.0713 49.2117 83.0713 50.5714C83.0713 52.1429 81.4509 53.3265 79.9958 52.961C79.7768 52.9034 79.5665 52.8166 79.3726 52.7058C78.1971 52.027 76.6884 52.4267 76.0086 53.6082C75.7386 54.0747 75.6835 54.5876 75.735 55.0858C75.7044 55.2598 75.6452 55.4247 75.6534 55.6079C75.6702 55.981 75.6789 56.3541 75.6789 56.7318C75.6789 61.8673 74.1334 66.7405 71.211 70.8246C70.4178 71.9316 70.673 73.4715 71.78 74.2636C72.2144 74.5739 72.7161 74.723 73.2122 74.723C73.9808 74.723 74.7377 74.3647 75.218 73.693C78.5085 69.0954 80.3295 63.6761 80.5607 57.9582C80.5766 57.9582 80.5914 57.9639 80.6072 57.9639C84.6837 57.9639 88.0002 54.6479 88.0002 50.5714C88.0002 46.4944 84.6837 43.1784 80.6072 43.1784Z" fill="white"></path></g><defs><clipPath id="clip0_150_310"><rect width="105.98" height="105.98" fill="white" transform="translate(0.329956 0.5)"></rect></clipPath></defs></svg>

<?xml version="1.0" encoding="UTF-8"?>
<svg id="Layer_1" xmlns="http://www.w3.org/2000/svg" version="1.1" xmlns:xlink="http://www.w3.org/1999/xlink" viewBox="0 0 107 107">
  <!-- Generator: Adobe Illustrator 29.8.3, SVG Export Plug-In . SVG Version: 2.1.1 Build 3)  -->
  <defs>
    <style>
      .st0 {
        fill: #fff;
      }

      .st1 {
        fill: none;
      }

      .st2 {
        fill: #336799;
      }

      .st3 {
        clip-path: url(#clippath);
      }
    </style>
    <clipPath id="clippath">
      <rect class="st1" x=".33" y=".5" width="105.98" height="105.98"/>
    </clipPath>
  </defs>
  <g class="st3">
    <g>
      <path class="st2" d="M53.32,106.49c29.27,0,52.99-23.73,52.99-52.99S82.59.5,53.32.5.33,24.23.33,53.49s23.73,52.99,52.99,52.99Z"/>
      <path class="st0" d="M53.5,70.29c-6.79,0-12.32-5.53-12.32-12.32h4.93v4.93c0,1.36,1.1,2.46,2.46,2.46h9.86c1.36,0,2.46-1.1,2.46-2.46v-4.93h4.93c0,6.79-5.53,12.32-12.32,12.32ZM55.96,60.43h-4.93v-2.46h4.93v2.46ZM68.29,53.04h-29.57c-1.36,0-2.46,1.1-2.46,2.46v2.46c0,9.51,7.74,17.25,17.25,17.25s17.25-7.74,17.25-17.25v-2.46c0-1.36-1.1-2.46-2.46-2.46Z"/>
      <path class="st0" d="M66.76,75.5c-.71.56-1.45,1.08-2.21,1.54-3.34,2.03-7.16,3.1-11.04,3.1-12.23,0-22.18-10.5-22.18-23.41,0-.38,0-.75.03-1.12.06-1.36-.99-2.51-2.35-2.57-.37-.02-.72.07-1.05.22l-.32-.55c-.19.11-.4.19-.62.25-1.46.38-3.08-.82-3.08-2.39,0-1.36,1.11-2.46,2.46-2.46.43,0,.86.11,1.23.33.15.09.29.19.42.31.12.1.26.15.38.22.28.42.67.79,1.18.97.27.1.55.14.83.14,1.01,0,1.96-.63,2.32-1.64l.19-.51c.16-.43.34-.85.53-1.27.64-1.41,1.42-2.76,2.32-4.02.79-1.11.54-2.65-.57-3.44-1.11-.79-2.65-.54-3.44.57-.92,1.29-1.71,2.67-2.41,4.1-.94-.42-1.94-.69-2.98-.69-4.08,0-7.39,3.32-7.39,7.39s3.32,7.39,7.39,7.39c.02,0,.04,0,.06,0,.62,15.06,12.5,27.11,27.05,27.11,4.78,0,9.49-1.32,13.6-3.82.93-.56,1.85-1.2,2.72-1.89,1.07-.84,1.25-2.39.41-3.46-.84-1.07-2.39-1.25-3.46-.4Z"/>
      <path class="st0" d="M80.61,43.18c-1.03,0-2.03.27-2.97.69-3.05-6.24-8.2-11-14.28-13.5v-4.44c0-1.36-1.1-2.46-2.46-2.46s-2.46,1.1-2.46,2.46v2.96c-.81-.16-1.63-.28-2.46-.36v-5.06c0-1.36-1.1-2.46-2.46-2.46s-2.46,1.1-2.46,2.46v5.05c-.83.08-1.65.2-2.46.36v-2.95c0-1.36-1.1-2.46-2.46-2.46s-2.46,1.1-2.46,2.46v4.41c-2.28.93-4.45,2.18-6.45,3.75-1.07.84-1.25,2.39-.41,3.46.49.62,1.21.94,1.94.94.53,0,1.07-.17,1.52-.53,3.85-3.04,8.44-4.64,13.26-4.64,8.5,0,16.36,5.23,20.03,13.34.19.42.36.84.53,1.27l.19.51c.36,1.01,1.31,1.64,2.32,1.64.27,0,.55-.05.83-.14.52-.18.9-.55,1.18-.97.13-.08.27-.12.38-.22.13-.12.27-.22.41-.3.37-.22.8-.33,1.23-.33,1.36,0,2.46,1.1,2.46,2.46,0,1.57-1.62,2.76-3.08,2.39-.22-.06-.43-.14-.62-.26-1.18-.68-2.68-.28-3.36.9-.27.47-.33.98-.27,1.48-.03.17-.09.34-.08.52.02.37.03.75.03,1.12,0,5.14-1.55,10.01-4.47,14.09-.79,1.11-.54,2.65.57,3.44.43.31.94.46,1.43.46.77,0,1.53-.36,2.01-1.03,3.29-4.6,5.11-10.02,5.34-15.73.02,0,.03,0,.05,0,4.08,0,7.39-3.32,7.39-7.39s-3.32-7.39-7.39-7.39Z"/>
    </g>
  </g>
</svg>
